X:163
T:Cast Away Waltz
C:Colin Hume, 2009
L:1/4
M:3/4
R:Waltz
%%MIDI beat 100 95 80
%%MIDI chordprog 46   Orchestral Harp
%%MIDI bassvol 0
S:Colin Hume's website,  colinhume.com  - chords can also be printed below the stave.
Q:1/4=120
N:For the dance by Alan Winston
%%MIDI ratio 3 1
K:C
V:1
%%MIDI control 10 0  Left speaker
%%MIDI program 73     Flute
[| "C"Gc2 | "F"Ac2 | "Dm"f/e/ d/c/ B/c/ | "G"d2e/f/ | "Am"ec "/G"e/f/ | "/F#"ec3/A/ | "C/G"Gce | "G7"d/c/B3/A/ |
"C"Gc2 | "F"Ac2 | "Dm"f/e/ d/c/ B/c/ | "G"d2e/f/ | "Am"ece/f/ | "G"gd3/e/ | "F"fA/B/ "G"c/d/ | "C"c2G ||
"Dm"D/C/DE | "G"F2F | "Em"E/D/EF | "A7"G2G | "D"ABc | "D7"ABc | "G"Bcd | "G7"Bcd |
"C"e/f/gg | "F"gfe | "Am/F#"edc | "G"cB3/A/ | "C"Gc2 | "F"Aca | "G7"GB/c/ d/e/ | "C"c3 |]
V:2
%%MIDI program 73     Flute
%%MIDI control 10 127   Right speaker
[| EG2 | FA2 | A/G/ F/E/ D/A/ | G2c/d/ | cAc/d/ | cA>^F | EGc | B/A/G>F |
EG2 | FA2 | A/G/ F/E/ D/A/ | G2c/d/ | cA2 | BG2 | AF G/F/ | E2C ||
A,3 | B,3 | B,3 | ^C3 | D2E | ^FGA | GE=F | GAB |
c/d/ee | edc | cBA | AG3/F/ | EG2 | FAc | BD/E/ F/G/ | E3 |]
V:3 bass octave=-2
%%MIDI program 46     Orchestral Harp
[| c3 | f2e | d3 | G3 | A2G | ^F3 | G3 | GAB |
c3 | f2e | d3 | G3 | A3 | B2G | F2G | c3 ||
d3 | G3 | e3 | A3 | d2e | ^f3 | g2=f | e2d |
c3 | F3 | ^F3 | G3 | c3 | f3 | g2G | c3 |]

